X:185
T:Djacko
O:Traditional Serbian
S:Colin Hume's website,  colinhume.com  - chords can also be printed below the stave.
Q:1/2=120
M:2/2
L:1/4
K:G
%%center (pronounced "Datch-ko")
%%stretchstaff 0
P:A
|: "G"dd de | "G"de d2 | "G"dg "C"fe | "G"d2 B2 :|
P:B
"D7"dc c2 | "G"dB B2 | "D7"dc c2 | "G"dB B2 ||
P:C
|: "G"G/A/B "D7"BA | "G"G/A/B "D7"BA | "G"G/A/B "D7"BA |1 "G"G2 D2 :|2 "G"G2 G2 |]

